!!!ONB: MCCC : ICS0086_00 : Extracted Monophonic Melody
!!!COM: Saint-Saëns, Camille
!!!OTL: Fantaisie No.3
!!!SCT: Op.157
!!!ODT: 1919///
**kern
*staff1
*clefG2
*k[]
*C:
*M4/4
8dd
8ee
=4
8dd
8ee
8ff
8ee
8ff
8ee
8dd
8ee
=5
8dd
8ee
8ff
8ee
8ff
8ee
8dd
8ee
=6
8dd
8ee
8ff
8gg
8aa
8gg
8ff
8ee
=7
8dd
8ee
8ff
8gg
8aa
8gg
8ff
8ee
=8
8dd
8ee
4ff[
8ff]
8ee
4dd[
=9
8dd]
8ee
8ff
8gg
8ff
8ee
4dd
=10
4dd
4cc
[4dd
4dd_
=11
4dd]
4r
8f
8g
4a
=12
4.g
8f
8g
8a
8b-
8cc
=13
8dd[
8dd]
4cc
8r
8cc
8b-
8a
=14
4g
4f
8r
8a
8d
8f
=15
4cc
4b-
2r
=16
4r
4ff
4ee
4dd
=17
4cc
8b
8a
2g[
=18
8g]
8f
8a
8g
4f
4e
=19
4d
4r
2r
=20
2r
8ee
8ff
8dd
8ee
=21
8cc
8dd
8b
8cc
8a
8cc
4b-
=22
4b-
2e
4r
=23
1r
=24
8ff
8gg
8ee-
8ff
8dd
8ee-
8cc
8dd
=25
8b-
8dd
[4cc
8cc_
8cc_
16cc_
16cc_
8cc]
=26
2.b-
4g#
=27
2.b
4b-
=28
2.ee-
4cc#
=29
1bb-
=30
1r
=31
1r
=32
2r
2b-
=33
2b
[2cc
=34
1cc_
=35
4cc_
4cc_
4cc_
4cc_
=36
4cc_
2cc]
4g#
=37
1g
=38
1r
=39
4r
4dd
4g
4b-
=40
4f
4aa
4dd
4ff
=41
2.g
8a
8b
=42
4cc
8dd
8ee
4a
8b
8cc
=43
4b
4r
2r
=44
4r
4aa
4dd
4ff
=45
4cc
4ddd
4gg
4bb-
=46
2.ff#
8gg
8gg#
=47
4aa
8bb
8ccc
4ff#
8gg
8aa
=48
4gg
8r
8g
8e
8ee
8b
8cc
=49
8g
8gg
8dd
8ee
8cc
8aa
8ee
8ff
=50
2gg
2gg[
=51
2gg]
4ff#
4gg
=52
4aa
8r
8a
8f#
8ff#
8cc#
8dd
=53
8a
8aa
8ee
8ff#
8dd
8bb
8ff#
8gg
=54
2aa
2aa[
=55
2aa]
4gg#
4aa
=56
4bb
8r
8ee
8ff#
8gg#
8aa
8bb
=57
1ccc#[
=58
1ccc#]
=59
2r
4ddd
4bb-
=60
2aa
4bb-
4gg
=61
2ff
4gg
4ee-
=62
1dd[
=63
4dd]
4gg
4ee-
4cc
=64
1b-[
=65
4b-]
4g
2a
=66
2r
4r
12d
12f
12b-
=67
4r
12e-
12g
12cc
4r
12g
12b-
12ee-
=68
4r
12a
12cc
12ff
4r
12g
12b-
12ee-
=69
4r
12e-
12g
12cc
4r
12c
12e-
12a
=70
4r
12d
12f
12b-
4r
12f
12b-
12dd
=71
4r
12g
12b-
12ee-
4r
12b-
12dd
12ff
=72
4r
12b-
12ff
12gg#
4r
12b-
12ee-
12gg
=73
4r
12g
12b-
12ee-
4r
12a
12cc
12ff
=74
4r
12f
12b-
12dd
4r
12dd
12ff
12bb-
=75
4r
12e-
12g
12cc
4r
12f
12g#
12dd
=76
4r
12gg
12bb-
12eee-
4r
12ee-
12gg
12ccc
=77
4r
12cc
12ee-
12aa
4r
12ff
12aa
12ddd
=78
4r
12dd
12ff
12bb-
4r
12b-
12dd
12gg
=79
4r
12ee-
12gg
12ccc
4r
12cc
12ee-
12gg
=80
4r
12a
12cc
12ff
4r
12b-
12ee-
12gg
=81
4r
12a
12cc
12ff
4r
12f
12a
12ee-
=82
4r
12f
12b-
12dd
8dd
8b-
4r
=83
4r
12f#
12cc
12dd
8dd
8cc
4r
=84
4r
12g
12b-
12dd
8dd
8b-
4r
=85
4r
12a
12cc#
12gg
8gg
8cc#
4r
=86
1r
=87
2r
4r
12f#
12a
12dd
=88
4r
12g
12b
12ee
4r
12a
12cc#
12ff#
=89
4r
12cc#
12ee
12aa
4r
12b
12dd
12gg
=90
4r
12g
12b
12ee
4r
12e
12g
12cc#
=91
4r
12f#
12a
12dd
4r
12a
12dd
12ff#
=92
4r
12b
12dd
12gg
4r
12dd
12ff#
12aa
=93
4r
12dd
12aa
12ccc#
4r
12dd
12gg
12bb
=94
4r
12b
12dd
12gg
4r
12cc#
12ee
12aa
=95
4r
12a
12dd
12ff#
8ff#
8dd
4r
=96
4r
12g
12b-
12ee
8ee
8b-
4r
=97
4r
12f#
12a
12dd
8dd
8a
4r
=98
4r
12e
12g
12cc#
8cc#
8g
4r
=99
4r
12e-
12g
[12cc
8cc_
8cc]
4r
=100
4r
12d
12f
12b-
8b-
8f
4r
=101
4r
12c
12e-
12a
8a
8e-
4r
=102
4r
12B-
12e
12g
8g
8e
4r
=103
4r
12A
12d
12f#
8f#
8d
4r
=104
1r
=105
2r
6A
6d
6f#[
=106
6f#]
6d
6A[
4A]
4r
=107
1r
=108
1r
=109
1r
=110
1r
=111
*M12/8
2.r
4.dd
4.b-
=112
4.a
4.g
4.ee-
4.cc
=113
4.b-
4.a
4.dd
4.gg
=114
4.ff#
4cc
8dd
4.ee
4b-
8cc
=115
2.dd
4.ff
4.dd
=116
4.cc
4.b
4.gg#
4.b
=117
4.dd
4.cc
4.ff#
4gg
8aa
=118
4.dd
4cc
8b-
4.dd
4cc
8b-
=119
2.dd
4.a
4.b-
=120
4.b
4.cc
4.cc
4.cc#
=121
4.dd
4.ee-
4.ccc[
4ccc]
8ff#
=122
4.aa
4.gg
[4.cc
4cc]
8b-
=123
2.dd[
4.dd]
4.dd
=124
2.ff
4.ee[
4ee]
8g
=125
2.cc
4.b[
4b]
8b
=126
2.aa
4.ff[
4ff]
8cc
=127
2.ee
4.dd[
4dd]
8dd
=128
*M4/4
4.ddd
8bb
8gg
8dd
8b
8g
=129
4f#
4e
4f#
4g
=130
4B
6c
12d
4e
6f#
12g
=131
4cc
6b
12a
4.ccc
8ff#
=132
*M12/8
4.gg
4.r
4.dd
4.cc#
=133
4.cc
4.b
4.dd[
4dd]
8gg#
=134
2.ff#
4.g
4.f#
=135
4.f
4.e-
4.g[
4g]
8ee-
=136
4.cc#
4.dd
4.d
4.f
=137
4.g
4.g#
4.f
4.g#
=138
4.b
2.cc
4.b-[
=139
4.b-]
2.a
4.g#
=140
*M4/4
1g
=141
1g[
=142
1g]
=143
1r
=144
1r
=145
1r
=146
1r
=147
1r
=148
1r
=149
1r
=150
2r
4r
8dd
8ee
=151
8dd
8ee
8ff
8ee
8ff
8ee
8dd
8ee
=152
8dd
8ee
8ff
8ee
8ff
8ee
8dd
8ee
=153
8dd
8ee
8ff
8gg
8aa
8gg
8ff
8ee
=154
8dd
8ee
8ff
8gg
8aa
8gg
8ff
8ee
=155
8dd
8ee
4ff[
8ff]
8ee
4dd[
=156
8dd]
8ee
8ff
8gg
8ff
8ee
4dd
=157
4dd
4cc
[4dd
4dd_
=158
4dd]
4r
8f
8g
4a
=159
4.g
8f
8g
8a
8b
8cc
=160
8dd[
8dd]
4cc
8r
8cc
8b
8a
=161
4g
4f
8r
8a
8d
8f
=162
4ee
4dd
2r
=163
4r
4ccc
4bb
4aa[
=164
4aa]
8gg
8ff
4ee
4ee
=165
8ee
8dd
8ff
8ee
4dd
4cc
=166
4b
4r
2r
=167
2r
8ccc
8ddd
8bb-
8ccc
=168
8aa
8bb-
8gg
8aa
8ff
8aa
4gg
=169
4gg
8ff
8ee
4ff
4r
=170
1r
=171
4r
4ff#
4gg
4aa
=172
4dd
4ee-
4dd
4cc
=173
2.gg
4ff
=174
2.gg#
4gg
=175
1bb-
=176
1r
=177
1r
=178
2r
2g
=179
1g
=180
1g[
=181
1g]
=182
1r
=183
1r
=184
1r
=185
16c
16B
16c
16d
16e
16d
16e
16f
16g
16f#
16g
16a
16b
16g
16a
16b
=186
16cc
16b
16cc
16dd
16ee
16dd
16ee
16ff
16gg
16ff#
16gg
16aa
16bb
16gg
16aa
16bb
=187
16ccc
16bb
16aa
16gg
16ff
16ee
16dd
16cc
16aa
16gg
16ff
16ee
16dd
16cc
16b
16a
=188
16ff
16ee
16dd
16cc
16b
16a
16g
16f
16dd
16cc
16b
16a
16g
16f
16e
16d
=189
16e
16d
16e
16f
16g
16f#
16g
16a
16b
16a
16b
16cc
16dd
16b
16cc
16dd
=190
16ee
16dd
16ee
16ff
16gg
16ff#
16gg
16aa
16bb
16aa
16bb
16ccc
16ddd
16bb
16ccc
16ddd
=191
16eee
16ddd
16ccc
16bb
16aa
16gg
16ff
16ee
16ccc
16bb
16aa
16gg
16ff
16ee
16dd
16cc
=192
16aa
16gg
16ff
16ee
16dd
16cc
16b
16a
16dd
16cc
16b
16a
16g
16f
16e
16d
=193
4r
4ee
4ff
4ee
=194
8gg
8ff
4ee
2aa
=195
4gg#
4ccc
4bb
4aa
=196
4gg
4ff
4.ff
8ee
=197
4dd
4gg
4aa
4gg
=198
8bb
8aa
4gg
4.ddd
8ccc
=199
4bb
4gg
4ccc
4gg
=200
4ff
4ee
2ee
=201
4cc
4r
2r
=202
1r
=203
1ee
=204
4aa
4aa
4aa
4gg
=205
4ff#
4r
2r
=206
1r
=207
1gg
=208
2aa
2bb
=209
4ccc
4r
2ccc[
=210
4ccc]
8g#
8b#
8cc#
8b-
8g
8b-
=211
8g#
8cc
4ee-
2ccc[
=212
4ccc]
8cc
8ee-
8ff
8cc#
8b-
8cc#
=213
8cc
8ee-
4gg#
2ccc
=214
2ccc
2ddd
=215
4eee-
4r
2eee-[
=216
4eee-]
8g
8b-
8b
8g#
8f
8g#
=217
8g
8b-
4ee-
2eee-[
=218
4eee-]
8b-
8cc#
8b
8ee-
8ff
8dd
=219
8ee-
8gg
4bb-
4r
4gg
=220
4r
4gg
4r
4aa
=221
4r
4bb
4r
8b-
8gg
=222
4r
8b
8gg
4r
8cc
8aa
=223
4r
8dd
8bb
4r
16cc
16ee
16gg
16ccc
=224
4r
12cc
12ff
12aa
4r
16b
16dd
16ff
16bb
=225
4r
12b
12ee
12gg
4r
16a
16cc
16ee
16aa
=226
4r
12a
12dd
12ff
12g
12dd
12ff
12g
12cc
12ee
=227
4f
8ff
8aa
8ee
8aa
8dd
8ddd
=228
4ccc
4bb
4aa
4gg[
=229
16gg]
16ccc
16bb
16aa
16gg
16ff
16ee
16dd
16cc
16b
16a
16g
16f
16e
16d
16c
=230
12e
12g
12cc
2ee
4gg
=231
1r
=232
8g
8cc
[2ee
4ee]
=233
1dd[
=234
4dd]
4r
2r
=235
1ddd[
=236
4ddd]
4r
2r
=237
1r
=238
2b-
4.a
8c
=239
2f
2e[
=240
1e]
=241
2a
2g
=242
4.gg
8ee
8cc
8g
8e
8c
=243
4B
4A
4B
4c
=244
2r
4F
4G
=245
2A
4B
4c
=246
2f
4e
4d
=247
2f
2B
=248
2f
4e
4d
=249
2f
2g
=250
1r
=251
2r
4r
8gg
8aa
=252
8gg
8aa
8bb-
8aa
8bb-
8aa
8gg
8aa
=253
8gg
8aa
8bb-
8aa
8bb-
8aa
8gg
8aa
=254
8gg
8aa
4bb-[
8bb-]
8aa
4gg[
=255
8gg]
8aa
8bb-
8ccc
8bb-
8aa
4gg[
=256
8gg]
8aa
8gg
8ff
2gg[
=257
8gg]
8aa
8gg
8ff
2gg
=258
4gg
4ff
4gg
4gg
=259
4gg
4ff
4gg
4gg
=260
4gg
4ff
4gg
4gg
=261
4gg
4ff
4gg
4gg[
=262
4gg]
4r
2r
=263
1d[
=264
1d]
=265
1e-
=266
2e
2r
=267
1f
=268
1g
=269
2g#
2b-
=270
1cc
==
*-
